contributed-vectors/one__plus_game_space.svg

<svg xmlns="http://www.w3.org/2000/svg" xml:space="preserve" style="fill-rule:evenodd;clip-rule:evenodd;stroke-linejoin:round;stroke-miterlimit:2" viewBox="0 0 192 192"><path d="M164.5 21.5c0-5.519-4.481-10-10-10h-133c-5.519 0-10 4.481-10 10v133c0 5.519 4.481 10 10 10h133c5.519 0 10-4.481 10-10v-133Z" style="fill:#9abeff" transform="translate(8 8)"/><path d="M152.936 75.331c0-3.337-1.347-6.537-3.746-8.897a12.893 12.893 0 0 0-9.043-3.685H52.529a12.893 12.893 0 0 0-9.043 3.685 12.483 12.483 0 0 0-3.746 8.897v41.113c0 3.337 1.348 6.537 3.746 8.897a12.893 12.893 0 0 0 9.043 3.685h87.618c3.392 0 6.645-1.325 9.043-3.685a12.478 12.478 0 0 0 3.746-8.897V75.331Z" style="fill:#fff" transform="matrix(.78195 0 0 .79474 21.085 19.77)"/><circle cx="118.832" cy="104.18" r="7.463" style="fill:#9abeff" transform="matrix(.78303 0 0 .78303 21.036 20.824)"/><circle cx="118.832" cy="104.18" r="7.463" style="fill:#f8c18c" transform="matrix(.78303 0 0 .78303 31.853 7.8)"/><path d="M64.585 92.612V80.984c0-.25.202-.453.452-.453h6.045c.25 0 .453.203.453.453v11.628h11.628c.25 0 .453.203.453.453v6.044c0 .25-.203.453-.453.453H71.535v11.628c0 .25-.203.453-.453.453h-6.045a.452.452 0 0 1-.452-.453V99.562H52.956a.452.452 0 0 1-.452-.453v-6.044c0-.25.202-.453.452-.453h11.629Z" style="fill:#979797" transform="matrix(.78303 0 0 .78303 20.92 20.824)"/></svg>

<?xml version="1.0" encoding="UTF-8" standalone="no"?>
<!DOCTYPE svg PUBLIC "-//W3C//DTD SVG 1.1//EN" "http://www.w3.org/Graphics/SVG/1.1/DTD/svg11.dtd">
<svg width="100%" height="100%" viewBox="0 0 192 192" version="1.1" xmlns="http://www.w3.org/2000/svg" xmlns:xlink="http://www.w3.org/1999/xlink" xml:space="preserve" xmlns:serif="http://www.serif.com/" style="fill-rule:evenodd;clip-rule:evenodd;stroke-linejoin:round;stroke-miterlimit:2;">
    <g id="Layer2">
        <g transform="matrix(1,0,0,1,8,8)">
            <path d="M164.5,21.5C164.5,15.981 160.019,11.5 154.5,11.5L21.5,11.5C15.981,11.5 11.5,15.981 11.5,21.5L11.5,154.5C11.5,160.019 15.981,164.5 21.5,164.5L154.5,164.5C160.019,164.5 164.5,160.019 164.5,154.5L164.5,21.5Z" style="fill:rgb(154,190,255);"/>
        </g>
        <g transform="matrix(0.783029,0,0,0.783029,20.9195,20.8237)">
            <g transform="matrix(0.998617,0,0,1.01496,0.211462,-1.34657)">
                <path d="M152.936,75.331C152.936,71.994 151.589,68.794 149.19,66.434C146.792,64.074 143.539,62.749 140.147,62.749C118.365,62.749 74.312,62.749 52.529,62.749C49.137,62.749 45.884,64.074 43.486,66.434C41.088,68.794 39.74,71.994 39.74,75.331C39.74,87.123 39.74,104.652 39.74,116.444C39.74,119.781 41.088,122.981 43.486,125.341C45.884,127.701 49.137,129.026 52.529,129.026C74.312,129.026 118.365,129.026 140.147,129.026C143.539,129.026 146.792,127.701 149.19,125.341C151.589,122.981 152.936,119.781 152.936,116.444C152.936,104.652 152.936,87.123 152.936,75.331Z" style="fill:white;"/>
            </g>
            <g transform="matrix(1,0,0,1,0.149262,0)">
                <circle cx="118.832" cy="104.18" r="7.463" style="fill:rgb(154,190,255);"/>
            </g>
            <g transform="matrix(1,0,0,1,13.9636,-16.6335)">
                <circle cx="118.832" cy="104.18" r="7.463" style="fill:rgb(248,193,140);"/>
            </g>
            <path d="M64.585,92.612L64.585,80.984C64.585,80.734 64.787,80.531 65.037,80.531C66.295,80.531 69.824,80.531 71.082,80.531C71.332,80.531 71.535,80.734 71.535,80.984L71.535,92.612L83.163,92.612C83.413,92.612 83.616,92.815 83.616,93.065C83.616,94.323 83.616,97.851 83.616,99.109C83.616,99.359 83.413,99.562 83.163,99.562L71.535,99.562L71.535,111.19C71.535,111.44 71.332,111.643 71.082,111.643C69.824,111.643 66.295,111.643 65.037,111.643C64.787,111.643 64.585,111.44 64.585,111.19L64.585,99.562L52.956,99.562C52.706,99.562 52.504,99.359 52.504,99.109C52.504,97.851 52.504,94.323 52.504,93.065C52.504,92.815 52.706,92.612 52.956,92.612L64.585,92.612Z" style="fill:rgb(151,151,151);"/>
        </g>
    </g>
</svg>
